X:304
T: Capt. Ross' Favorite
N: O'Farrell's Pocket Companion v.4 (Sky ed. p.136)
N: "Scotch"
M: 2/4
L: 1/8
R: polka
Q: 240
K: Ddor
D>EDd| cB/A/ c2| GEEB |cEE>F|
DEDd| A/B/c/A/ d2| FDDc| dAA2 :|
defd| gefd| e>dc>e| ge c2| d>efg|
a>_bag| fd e/f/g/e/| fdd2 :|
